X:33
T:Combat. THO5.033, The
M:C
L:1/8
B:Thompson's Complete Collection of 200 Favourite Dances Vol.5
F:https://www.libraryofdance.org/manuals/1780c-Thompson-Compleat-5.pdf
Z:vmp. Peter Dunk 2024
Q:1/4=140
K:D
A|d2 fd gedc|d2 fd gedc|dfaf d'afd|edcB A2 zA|
d2 fd gedc|d2 fd gedc|dfad' c'ba^g a2 (e/d/c/B/) A3:|
|:a|affd bdad|gfed dcBA|dfaf bcad|gfed c3A|
d2 fd gedc|d2 fd gedc|dabg fedc|d2 (A/G/F/E/) D3:|
W:
W:The 1st Gent turn the 2nd Lady, the 1st Ladt turn the 2nd Gent ./.
W:1st 2nd & 3rd Couples:Promenade quite round ./:
W:cross over 1 Couple: lead through the top and cast off :/.
W:hands 6 quite round :/:

